public/img/angular-icon.svg

<svg width="40" height="42" viewBox="0 0 40 42" fill="none" xmlns="http://www.w3.org/2000/svg">
<g clip-path="url(#clip0_34_137)">
<path d="M40.1273 -0.108887V42.1329H-0.00244141V-0.108887H40.1273Z" fill="black"/>
<path d="M0.0142396 6.9604L19.7348 0L39.9866 6.83684L36.7076 32.6867L19.7348 42L3.02819 32.8103L0.0131836 6.9604H0.0142396Z" fill="#212121"/>
<path d="M39.9867 6.83684L19.7349 0V41.9989L36.7055 32.7026L39.9845 6.83684H39.9867Z" fill="#4C4C4C"/>
<path d="M19.7647 4.90332L7.47656 31.9909L12.0672 31.9138L14.5341 25.8025H25.5582L28.2595 31.9909L32.6464 32.068L19.7647 4.90332ZM19.7964 13.5819L23.9498 22.1834H16.1425L19.7964 13.5819Z" fill="#FBFBFB"/>
</g>
<defs>
<clipPath id="clip0_34_137">
<rect width="40" height="42" fill="white"/>
</clipPath>
</defs>
</svg>

<svg width="40" height="42" fill="none" xmlns="http://www.w3.org/2000/svg"><g clip-path="url(#clip0_34_137)"><path d="M40.127-.109v42.242H-.003V-.11h40.13z" fill="#000"/><path d="M.014 6.96L19.734 0l20.253 6.837-3.28 25.85L19.736 42 3.028 32.81.013 6.96h.001z" fill="#212121"/><path d="M39.987 6.837L19.735 0v41.999l16.97-9.296 3.28-25.866h.002z" fill="#4C4C4C"/><path d="M19.765 4.903L7.477 31.991l4.59-.077 2.467-6.112h11.024l2.701 6.189 4.387.077L19.765 4.903zm.031 8.679l4.154 8.601h-7.808l3.654-8.601z" fill="#FBFBFB"/></g><defs><clipPath id="clip0_34_137"><path fill="#fff" d="M0 0h40v42H0z"/></clipPath></defs></svg>
